X:44
T:Paddy Wack. WCl.44
M:6/8
L:1/8
Q:3/8=120
S:William Clarke MS,Lincoln,1770.
R:.Jig
O:Lincoln
A:England
Z:vmp.Barry Callaghan
K:G
D|GBd geg|fdc BAG|GBd geg|fddd2 e/f/|!
geg fdB|cec dBG|GBd cAc|BGGG2:|!
|:d2 e/f/|!
geg fdB|cec dBG|GBd cAc|BGG G3:|

